src/assets/img/pay-info-img-1.svg

<svg width="41" height="29" viewBox="0 0 41 29" fill="none" xmlns="http://www.w3.org/2000/svg">
<path d="M36.5156 0.40625H4.48438C2.01172 0.40625 0 2.41797 0 4.89062V24.1094C0 26.582 2.01172 28.5938 4.48438 28.5938H36.5156C38.9883 28.5938 41 26.582 41 24.1094V4.89062C41 2.41797 38.9883 0.40625 36.5156 0.40625ZM4.48438 2.96875H36.5156C37.5753 2.96875 38.4375 3.83095 38.4375 4.89062V7.45312H2.5625V4.89062C2.5625 3.83095 3.4247 2.96875 4.48438 2.96875ZM36.5156 26.0312H4.48438C3.4247 26.0312 2.5625 25.169 2.5625 24.1094V10.0156H38.4375V24.1094C38.4375 25.169 37.5753 26.0312 36.5156 26.0312Z" fill="#252525"/>
<path d="M8.96875 22.1875H7.6875C6.97993 22.1875 6.40625 21.6138 6.40625 20.9062V19.625C6.40625 18.9174 6.97993 18.3438 7.6875 18.3438H8.96875C9.67632 18.3438 10.25 18.9174 10.25 19.625V20.9062C10.25 21.6138 9.67632 22.1875 8.96875 22.1875Z" fill="#252525"/>
</svg>

<svg xmlns="http://www.w3.org/2000/svg" width="41" height="29" fill="none"><path fill="#252525" d="M36.5.4h-32C2 .4 0 2.4 0 5V24c0 2.5 2 4.5 4.5 4.5h32c2.5 0 4.5-2 4.5-4.5V5c0-2.5-2-4.5-4.5-4.5ZM4.5 3h32c1 0 2 .8 2 1.9v2.6h-36V4.9c0-1 1-2 2-2Zm32 23h-32c-1 0-2-.8-2-1.9v-14h36v14c0 1-1 2-2 2Z"/><path fill="#252525" d="M9 22.2H7.7c-.7 0-1.3-.6-1.3-1.3v-1.3c0-.7.6-1.3 1.3-1.3H9c.7 0 1.3.6 1.3 1.3V21c0 .7-.6 1.3-1.3 1.3Z"/></svg>
